X: 1364
T: The Crooked Stovepipe
C:often attributed to Colin J Boyd, Cape Breton
B: australian traditional tunes wiki
M:2/4
L:1/16
Q: 1/4=100
K:G
V:1 
A||"G"G2B2 BcBA|G2B2 B3c|d2B2 e3B|"D7"d2d2 c3A|F2A2 AcBA|F2A2 A3c|dddd e2d2|"G"B4B3A|
"G"G2B2 BcBA|G2B2 B3c|d2B2 e3B|"D7"d2d2 c3A|F2A2 AcBA|F2A2 f3e|dddd e2f2|"G"g4d4||
|:"G"d2b4B2|[B4g4][B4g4]|B2d2 e3B|"D7"d2d2c4|"C"(c'6e2)|"D7"f4-fefe|1"D7"d2d2 e3d|"G"B6z2:|2"D7"d2d2 e2f2|"G"[B4g4-][B4g4]||
% abcbook-tune_id 6342d53a45d015f370e1ad47


% abcbook-boost 0
% abcbook-tablature 
% abcbook-transpose 
% abcbook-lastupdated 1665324361265
% abcbook-soundfonts 
% abcbook-repeats 1
% NFF Book 2013

